X: 10643
M: 6/8
L: 1/8
K: G
|:\
gfg efg | dec BAG | gfg efg | dBG A3 |\
gfg efg | dec BAG | DGG BGB | cAF G3 :|
|:\


